src/svg/getting-started.svg

<?xml version="1.0" encoding="UTF-8"?>
<svg width="440px" height="330px" viewBox="0 0 440 330" version="1.1" xmlns="http://www.w3.org/2000/svg" xmlns:xlink="http://www.w3.org/1999/xlink">
    <!-- Generator: Sketch 59.1 (86144) - https://sketch.com -->
    <title>Graphic elements / Rich icons / Getting started</title>
    <desc>Created with Sketch.</desc>
    <g id="Graphic-elements-/-Rich-icons-/-Getting-started" stroke="none" stroke-width="1" fill="none" fill-rule="evenodd">
        <g id="bannerAsset-214" transform="translate(70.000000, 15.000000)" fill-rule="nonzero">
            <path d="M91.35,258.84 C54.75,295.44 0,300 0,300 C0,300 4.58,245.25 41.17,208.65 C77.76,172.05 118.66,153.65 132.52,167.48 C146.38,181.31 127.94,222.25 91.35,258.84 Z" id="Path" fill="#FFE700"></path>
            <path d="M106.52,224.92 C83.6,247.83 49.32,250.69 49.32,250.69 C49.32,250.69 52.18,216.41 75.1,193.5 C98.02,170.59 123.62,159.04 132.3,167.72 C140.98,176.4 129.43,202 106.52,224.92 Z" id="Path" fill="#FFF387"></path>
            <path d="M114.38,207.46 C98.46,223.38 74.64,225.38 74.64,225.38 C74.64,225.38 76.64,201.55 92.55,185.63 C108.46,169.71 126.27,161.69 132.3,167.71 C138.33,173.73 130.31,191.54 114.38,207.46 Z" id="Path" fill="#FFFCDB"></path>
            <polygon id="Path" fill="#023852" points="165.84 191.54 153.62 198.25 139.65 205.91 94.27 160.53 101.93 146.55 108.63 134.33"></polygon>
            <path d="M262.06,8 C214.86,21.35 135.69,55.5 95,139.66 L127.74,172.4 L160.47,205.14 C244.63,164.49 278.79,85.31 292.1,38.14 C298.52,15.38 300.1,0.06 300.1,0.06 C300.1,0.06 284.81,1.61 262.06,8 Z" id="Path" fill="#0099DA"></path>
            <path d="M292.14,38.12 L262.06,8 C284.81,1.58 300.14,0 300.14,0 C300.14,0 298.56,15.36 292.14,38.12 Z" id="Path" fill="#96A6AE"></path>
            <path d="M300,0.06 C298.22,0.26 283.42,2.06 262.1,8.06 L277.1,23.06 L300,0.06 Z" id="Path" fill="#DEE3E6"></path>
            <polygon id="Path" fill="#194D6D" points="14.67 160.12 2.59 160.56 57.59 83.29 74.23 81.72"></polygon>
            <path d="M216.72,242.41 L139.46,297.41 L139.9,285.34 L160.2,213.28 L160.49,205.11 L225.07,158.47 C224.98,158.57 224.62,161.65 224.07,166.57 C222.63,180.16 219.97,207.87 218.27,225.77 C217.36,235.56 216.72,242.41 216.72,242.41 Z" id="Path" fill="#023852"></path>
            <polygon id="Path" fill="#023852" opacity="0.5" style="mix-blend-mode: multiply;" points="160.49 205.12 160.13 213.33 151.66 243.76 221.89 189.29 225.07 158.48"></polygon>
            <polygon id="Rectangle" fill="#003A5D" transform="translate(126.603867, 173.412641) rotate(45.000000) translate(-126.603867, -173.412641) " points="120.258867 93.232641 132.948867 93.232641 132.948867 253.592641 120.258867 253.592641"></polygon>
            <polygon id="Rectangle" fill="#194D6D" transform="translate(124.357732, 171.166133) rotate(-45.000000) translate(-124.357732, -171.166133) " points="44.1777315 167.991133 204.537732 167.991133 204.537732 174.341133 44.1777315 174.341133"></polygon>
            <path d="M57.61,83.33 L2.61,160.59 L14.69,160.15 L86.74,139.85 L94.92,139.55 L141.54,75 C141.44,75.1 138.36,75.46 133.44,76 C119.85,77.44 92.14,80.11 74.24,81.8 C64.46,82.69 57.61,83.33 57.61,83.33 Z" id="Path" fill="#023852"></path>
            <polygon id="Path" fill="#023852" opacity="0.5" style="mix-blend-mode: multiply;" points="94.91 139.55 86.69 139.91 56.26 148.39 110.73 78.16 141.54 74.97"></polygon>
            <polygon id="Path" fill="#003A5D" opacity="0.2" points="187.79 121.2 180.01 191.12 160.49 205.12 132.03 176.89"></polygon>
            <path d="M160.55,205.1 L127.81,172.36 L300.17,0 C300.17,0 298.59,15.33 292.17,38.08 C278.86,85.28 244.7,164.45 160.55,205.1 Z" id="Path" fill="#023852" opacity="0.2"></path>
            <circle id="Oval" fill="#3DB3E3" transform="translate(206.089314, 94.084041) rotate(-45.000000) translate(-206.089314, -94.084041) " cx="206.089314" cy="94.0840405" r="23.04"></circle>
            <circle id="Oval" fill="#F1F3F4" transform="translate(206.089314, 94.084041) rotate(-45.000000) translate(-206.089314, -94.084041) " cx="206.089314" cy="94.0840405" r="18.03"></circle>
            <path d="M255,66.6 C250.676034,70.9251427 244.17233,72.2194997 238.521868,69.8794521 C232.871406,67.5394044 229.187091,62.0258435 229.187091,55.91 C229.187091,49.7941565 232.871406,44.2805956 238.521868,41.9405479 C244.17233,39.6005003 250.676034,40.8948573 255,45.22 C260.902788,51.1243944 260.902788,60.6956056 255,66.6 L255,66.6 Z" id="Path" fill="#3DB3E3"></path>
            <path d="M252.63,64.28 C248.00866,68.8958975 240.520853,68.8929566 235.903141,64.2734303 C231.285428,59.653904 231.285428,52.166096 235.903141,47.5465697 C240.520853,42.9270434 248.00866,42.9241025 252.63,47.54 C254.851571,49.7589547 256.099856,52.7700737 256.099856,55.91 C256.099856,59.0499263 254.851571,62.0610453 252.63,64.28 L252.63,64.28 Z" id="Path" fill="#F1F3F4"></path>
        </g>
    </g>
</svg>

<svg width="440" height="330" xmlns="http://www.w3.org/2000/svg"><g transform="translate(70 15)" fill-rule="nonzero" fill="none"><path d="M91.35 258.84C54.75 295.44 0 300 0 300s4.58-54.75 41.17-91.35c36.59-36.6 77.49-55 91.35-41.17 13.86 13.83-4.58 54.77-41.17 91.36z" fill="#FFE700"/><path d="M106.52 224.92c-22.92 22.91-57.2 25.77-57.2 25.77s2.86-34.28 25.78-57.19c22.92-22.91 48.52-34.46 57.2-25.78s-2.87 34.28-25.78 57.2z" fill="#FFF387"/><path d="M114.38 207.46c-15.92 15.92-39.74 17.92-39.74 17.92s2-23.83 17.91-39.75c15.91-15.92 33.72-23.94 39.75-17.92 6.03 6.02-1.99 23.83-17.92 39.75z" fill="#FFFCDB"/><path fill="#023852" d="M165.84 191.54l-12.22 6.71-13.97 7.66-45.38-45.38 7.66-13.98 6.7-12.22z"/><path d="M262.06 8C214.86 21.35 135.69 55.5 95 139.66l32.74 32.74 32.73 32.74c84.16-40.65 118.32-119.83 131.63-167 6.42-22.76 8-38.08 8-38.08S284.81 1.61 262.06 8z" fill="#0099DA"/><path d="M292.14 38.12L262.06 8c22.75-6.42 38.08-8 38.08-8s-1.58 15.36-8 38.12z" fill="#96A6AE"/><path d="M300 .06c-1.78.2-16.58 2-37.9 8l15 15 22.9-23z" fill="#DEE3E6"/><path fill="#194D6D" d="M14.67 160.12l-12.08.44 55-77.27 16.64-1.57z"/><path d="M216.72 242.41l-77.26 55 .44-12.07 20.3-72.06.29-8.17 64.58-46.64c-.09.1-.45 3.18-1 8.1-1.44 13.59-4.1 41.3-5.8 59.2-.91 9.79-1.55 16.64-1.55 16.64z" fill="#023852"/><path fill="#023852" opacity=".5" style="mix-blend-mode:multiply" d="M160.49 205.12l-.36 8.21-8.47 30.43 70.23-54.47 3.18-30.81z"/><path fill="#003A5D" d="M178.813 112.23l8.973 8.973L74.395 234.595l-8.974-8.973z"/><path fill="#194D6D" d="M65.417 225.617l113.391-113.392 4.49 4.49L69.908 230.107z"/><path d="M57.61 83.33l-55 77.26 12.08-.44 72.05-20.3 8.18-.3L141.54 75c-.1.1-3.18.46-8.1 1-13.59 1.44-41.3 4.11-59.2 5.8-9.78.89-16.63 1.53-16.63 1.53z" fill="#023852"/><path fill="#023852" opacity=".5" style="mix-blend-mode:multiply" d="M94.91 139.55l-8.22.36-30.43 8.48 54.47-70.23 30.81-3.19z"/><path fill="#003A5D" opacity=".2" d="M187.79 121.2l-7.78 69.92-19.52 14-28.46-28.23z"/><path d="M160.55 205.1l-32.74-32.74L300.17 0s-1.58 15.33-8 38.08c-13.31 47.2-47.47 126.37-131.62 167.02z" fill="#023852" opacity=".2"/><circle fill="#3DB3E3" transform="rotate(-45 206.09 94.084)" cx="206.089" cy="94.084" r="23.04"/><circle fill="#F1F3F4" transform="rotate(-45 206.09 94.084)" cx="206.089" cy="94.084" r="18.03"/><path d="M255 66.6a15.12 15.12 0 110-21.38c5.903 5.904 5.903 15.476 0 21.38z" fill="#3DB3E3"/><path d="M252.63 64.28c-4.621 4.616-12.11 4.613-16.727-.007-4.618-4.62-4.618-12.107 0-16.726 4.618-4.62 12.106-4.623 16.727-.007a11.83 11.83 0 010 16.74z" fill="#F1F3F4"/></g></svg>
